X: 17
T:Out Of Sight - Out Of Mind
M:4/4
L:1/8
Q:100
C:Dave Jordan
K:D
f|"D"ff2f "?"f3f|"G"gfed "A"e2AA|a2af gfec|"D"d4-d2ff|!
"D"ff2f "?"f3f|"G"gfed "A"e2AA|a2af gfec|"D"d4- dzdd|!
"Em"e2ee "A"edef|"D"d4-d2ff|"Em"gg2f edef|"A"e4- eA AA|!
"D"a2aa a2d>d|"Em"gfed "G"e<dcB|"A"A4- A2Aa|"G"g-f d2-d2ef|
"A"e4-e4-|e4-eze:||
W:Guitar chord (?) is a D of some sort (possibly Diminished?).
W: Notes are D A c# f#, Tablature XX0222
